icons/camera-outline.svg

<svg width="24" height="24" viewBox="0 0 24 24" fill="none" xmlns="http://www.w3.org/2000/svg">
<path fill-rule="evenodd" clip-rule="evenodd" d="M4 6.00304C5.341 6.00504 6.678 6.00504 8.011 6.00304L8.642 4.73704C8.744 4.47504 8.889 4.28304 9.075 4.16304C9.27685 4.0383 9.51363 3.98218 9.75 4.00304H14.225C14.488 3.98604 14.716 4.03904 14.91 4.16304C15.105 4.28604 15.259 4.47804 15.373 4.73704L15.993 6.00304C17.331 6.00604 18.667 6.00604 20 6.00304C21.333 6.00004 22 6.66604 22 8.00004V18C22 19.338 21.333 20.006 20 20.003C18 19.999 6.011 19.999 4 20.003C2.66 20.006 1.992 19.338 2 18V8.00004C1.992 6.66704 2.66 6.00204 4 6.00304ZM4 8.00004V18H20V8.00004H15L14 6.00504H10L9 8.00004H4ZM12 17.003C10.9391 17.003 9.92172 16.5816 9.17157 15.8315C8.42143 15.0813 8 14.0639 8 13.003C8 11.9422 8.42143 10.9248 9.17157 10.1746C9.92172 9.42447 10.9391 9.00304 12 9.00304C13.0609 9.00304 14.0783 9.42447 14.8284 10.1746C15.5786 10.9248 16 11.9422 16 13.003C16 14.0639 15.5786 15.0813 14.8284 15.8315C14.0783 16.5816 13.0609 17.003 12 17.003ZM12 15.003C12.5304 15.003 13.0391 14.7923 13.4142 14.4173C13.7893 14.0422 14 13.5335 14 13.003C14 12.4726 13.7893 11.9639 13.4142 11.5888C13.0391 11.2138 12.5304 11.003 12 11.003C11.4696 11.003 10.9609 11.2138 10.5858 11.5888C10.2107 11.9639 10 12.4726 10 13.003C10 13.5335 10.2107 14.0422 10.5858 14.4173C10.9609 14.7923 11.4696 15.003 12 15.003Z" fill="#3A3A47"/>
</svg>

<svg xmlns="http://www.w3.org/2000/svg" width="24" height="24" viewBox="0 0 24 24">
    <path fill="#3A3A47" fill-rule="evenodd" d="M14.91 4.163c.195.123.349.315.463.574l.62 1.266c1.338.003 2.674.003 4.007 0C21.333 6 22 6.666 22 8v10c0 1.338-.667 2.006-2 2.003-2-.004-13.989-.004-16 0-1.34.003-2.008-.665-2-2.003V8c-.008-1.333.66-1.998 2-1.997 1.341.002 2.678.002 4.011 0l.631-1.266c.102-.262.247-.454.433-.574a1.1 1.1 0 0 1 .675-.16h4.475c.263-.017.491.036.685.16zM14 6.005h-4L9 8H4v10h16V8h-5l-1-1.995zm-2 2.998a4 4 0 1 1 0 8 4 4 0 0 1 0-8zm0 2a2 2 0 1 0 0 4 2 2 0 0 0 0-4z"/>
</svg>
